assets/images/companies/hakoot.svg

<svg xmlns="http://www.w3.org/2000/svg" style="isolation:isolate" viewBox="-10 -10 130 50" width="130" height="50"><defs><clipPath id="a"><path d="M0 0h110v30H0z"/></clipPath></defs><g clip-path="url(#a)"><path fill="none" d="M0 0h110v30H0z"/><path d="M28.53 7.2h-1.924v16.166h1.924v-6.611q0-.793.216-1.461.215-.668.645-1.166.43-.498 1.075-.769.646-.272 1.529-.272 1.109 0 1.743.634.634.634.634 1.72v7.925h1.924v-7.698q0-.951-.192-1.732-.193-.781-.668-1.347-.475-.566-1.245-.883-.77-.317-1.925-.317-.52 0-1.075.113-.555.113-1.064.351-.51.238-.917.611-.408.374-.634.917h-.046V7.2zm20.243 12.081v-1.96q-.362.27-.95.394-.589.124-1.234.203-.646.079-1.302.18-.657.101-1.178.327-.52.225-.849.642-.328.417-.328 1.138 0 .473.193.799.192.327.498.53.305.203.713.293.407.09.86.09.951 0 1.63-.259.68-.259 1.11-.654.43-.394.634-.856.203-.462.203-.867zM58.488 7.2h-1.924v16.166h1.924v-4.438l1.812-1.675 4.007 6.113h2.445l-4.981-7.449 4.642-4.257h-2.581l-5.344 5.117V7.2zm13.26 10.324q0-1.064.283-1.89.283-.826.781-1.392.498-.566 1.166-.861.668-.294 1.415-.294t1.415.294q.668.295 1.166.861.498.566.781 1.392.283.826.283 1.89 0 1.065-.283 1.891-.283.826-.781 1.381-.498.555-1.166.849-.668.294-1.415.294t-1.415-.294q-.668-.294-1.166-.849-.498-.555-.781-1.381-.283-.826-.283-1.891zm15.951 0q0-1.064.283-1.89.283-.826.781-1.392.499-.566 1.166-.861.668-.294 1.416-.294.747 0 1.415.294.667.295 1.166.861.498.566.781 1.392.283.826.283 1.89 0 1.065-.283 1.891-.283.826-.781 1.381-.499.555-1.166.849-.668.294-1.415.294-.748 0-1.416-.294-.667-.294-1.166-.849-.498-.555-.781-1.381-.283-.826-.283-1.891zm19.552-5.864h-2.332V8.151h-1.925v3.509h-1.992v1.699h1.992v7.448q0 .815.159 1.314.158.498.487.769.328.272.86.374.532.102 1.279.102h1.472v-1.698h-.883q-.453 0-.736-.034t-.442-.147q-.158-.114-.215-.317-.056-.204-.056-.544v-7.267h2.332V11.66zM51.898 21.826v1.495q-.498.294-1.381.294-.747 0-1.189-.419-.441-.419-.441-1.37-.793.951-1.846 1.37-1.052.419-2.275.419-.792 0-1.506-.181-.713-.181-1.233-.566-.521-.385-.827-1.008-.306-.622-.306-1.505 0-.997.34-1.631t.894-1.03q.555-.396 1.268-.6.713-.203 1.461-.339.792-.159 1.505-.238.713-.079 1.257-.226.543-.148.86-.431.317-.283.317-.826 0-.634-.238-1.019-.237-.385-.611-.589-.373-.203-.838-.271-.464-.068-.917-.068-1.222 0-2.037.464t-.883 1.755h-1.925q.046-1.087.453-1.834.408-.747 1.087-1.212.679-.464 1.551-.667.871-.204 1.868-.204.792 0 1.573.113.781.113 1.415.463.634.35 1.019.983.385.632.385 1.649v6.009q0 .678.079.994.079.317.532.317.249 0 .589-.091zm17.812-4.302q0 1.291.362 2.4.363 1.11 1.087 1.936.725.827 1.789 1.291 1.064.464 2.445.464 1.404 0 2.457-.464 1.052-.464 1.777-1.291.724-.826 1.087-1.936.362-1.109.362-2.4 0-1.29-.362-2.411-.363-1.121-1.087-1.947-.725-.826-1.777-1.302-1.053-.475-2.457-.475-1.381 0-2.445.475-1.064.476-1.789 1.302-.724.826-1.087 1.947-.362 1.121-.362 2.411zm15.952 0q0 1.291.362 2.4.362 1.11 1.087 1.936.724.827 1.788 1.291 1.064.464 2.446.464 1.403 0 2.456-.464t1.777-1.291q.725-.826 1.087-1.936.362-1.109.362-2.4 0-1.29-.362-2.411t-1.087-1.947q-.724-.826-1.777-1.302-1.053-.475-2.456-.475-1.382 0-2.446.475-1.064.476-1.788 1.302-.725.826-1.087 1.947t-.362 2.411zM18.865 6.065h-3.836l-1.13-1.1H8.324l-1.115 1.1H3.374a.63.63 0 00-.625.625v.996c0 .342.283.624.625.624H18.85a.627.627 0 00.624-.624V6.69a.598.598 0 00-.609-.625zM4.622 22.85a2.19 2.19 0 002.186 2.185h8.726a2.189 2.189 0 002.186-2.185l.654-13.574H3.879l.743 13.574z" fill-rule="evenodd" fill="#fff"/></g></svg>

<?xml version="1.0" standalone="no"?><!-- Generator: Gravit.io --><svg xmlns="http://www.w3.org/2000/svg" xmlns:xlink="http://www.w3.org/1999/xlink" style="isolation:isolate" viewBox="-10 -10 130 50" width="130" height="50"><defs><clipPath id="_clipPath_i9YgT2tPAoZM7elgq4GF5CvKEYbMHdD4"><rect width="110" height="30"/></clipPath></defs><g clip-path="url(#_clipPath_i9YgT2tPAoZM7elgq4GF5CvKEYbMHdD4)"><rect width="110" height="30" style="fill:white" fill-opacity="0"/><path d=" M 28.53 7.2 L 26.606 7.2 L 26.606 23.366 L 28.53 23.366 L 28.53 16.755 L 28.53 16.755 Q 28.53 15.962 28.746 15.294 L 28.746 15.294 L 28.746 15.294 Q 28.961 14.626 29.391 14.128 L 29.391 14.128 L 29.391 14.128 Q 29.821 13.63 30.466 13.359 L 30.466 13.359 L 30.466 13.359 Q 31.112 13.087 31.995 13.087 L 31.995 13.087 L 31.995 13.087 Q 33.104 13.087 33.738 13.721 L 33.738 13.721 L 33.738 13.721 Q 34.372 14.355 34.372 15.441 L 34.372 15.441 L 34.372 23.366 L 36.296 23.366 L 36.296 15.668 L 36.296 15.668 Q 36.296 14.717 36.104 13.936 L 36.104 13.936 L 36.104 13.936 Q 35.911 13.155 35.436 12.589 L 35.436 12.589 L 35.436 12.589 Q 34.961 12.023 34.191 11.706 L 34.191 11.706 L 34.191 11.706 Q 33.421 11.389 32.266 11.389 L 32.266 11.389 L 32.266 11.389 Q 31.746 11.389 31.191 11.502 L 31.191 11.502 L 31.191 11.502 Q 30.636 11.615 30.127 11.853 L 30.127 11.853 L 30.127 11.853 Q 29.617 12.091 29.21 12.464 L 29.21 12.464 L 29.21 12.464 Q 28.802 12.838 28.576 13.381 L 28.576 13.381 L 28.53 13.381 L 28.53 7.2 L 28.53 7.2 Z  M 48.773 19.281 L 48.773 17.321 L 48.773 17.321 Q 48.411 17.591 47.823 17.715 L 47.823 17.715 L 47.823 17.715 Q 47.234 17.839 46.589 17.918 L 46.589 17.918 L 46.589 17.918 Q 45.943 17.997 45.287 18.098 L 45.287 18.098 L 45.287 18.098 Q 44.63 18.199 44.109 18.425 L 44.109 18.425 L 44.109 18.425 Q 43.589 18.65 43.26 19.067 L 43.26 19.067 L 43.26 19.067 Q 42.932 19.484 42.932 20.205 L 42.932 20.205 L 42.932 20.205 Q 42.932 20.678 43.125 21.004 L 43.125 21.004 L 43.125 21.004 Q 43.317 21.331 43.623 21.534 L 43.623 21.534 L 43.623 21.534 Q 43.928 21.737 44.336 21.827 L 44.336 21.827 L 44.336 21.827 Q 44.743 21.917 45.196 21.917 L 45.196 21.917 L 45.196 21.917 Q 46.147 21.917 46.826 21.658 L 46.826 21.658 L 46.826 21.658 Q 47.506 21.399 47.936 21.004 L 47.936 21.004 L 47.936 21.004 Q 48.366 20.61 48.57 20.148 L 48.57 20.148 L 48.57 20.148 Q 48.773 19.686 48.773 19.281 L 48.773 19.281 L 48.773 19.281 Z  M 58.488 7.2 L 56.564 7.2 L 56.564 23.366 L 58.488 23.366 L 58.488 18.928 L 60.3 17.253 L 64.307 23.366 L 66.752 23.366 L 61.771 15.917 L 66.413 11.66 L 63.832 11.66 L 58.488 16.777 L 58.488 7.2 L 58.488 7.2 Z  M 71.748 17.524 L 71.748 17.524 L 71.748 17.524 Q 71.748 16.46 72.031 15.634 L 72.031 15.634 L 72.031 15.634 Q 72.314 14.808 72.812 14.242 L 72.812 14.242 L 72.812 14.242 Q 73.31 13.676 73.978 13.381 L 73.978 13.381 L 73.978 13.381 Q 74.646 13.087 75.393 13.087 L 75.393 13.087 L 75.393 13.087 Q 76.14 13.087 76.808 13.381 L 76.808 13.381 L 76.808 13.381 Q 77.476 13.676 77.974 14.242 L 77.974 14.242 L 77.974 14.242 Q 78.472 14.808 78.755 15.634 L 78.755 15.634 L 78.755 15.634 Q 79.038 16.46 79.038 17.524 L 79.038 17.524 L 79.038 17.524 Q 79.038 18.589 78.755 19.415 L 78.755 19.415 L 78.755 19.415 Q 78.472 20.241 77.974 20.796 L 77.974 20.796 L 77.974 20.796 Q 77.476 21.351 76.808 21.645 L 76.808 21.645 L 76.808 21.645 Q 76.14 21.939 75.393 21.939 L 75.393 21.939 L 75.393 21.939 Q 74.646 21.939 73.978 21.645 L 73.978 21.645 L 73.978 21.645 Q 73.31 21.351 72.812 20.796 L 72.812 20.796 L 72.812 20.796 Q 72.314 20.241 72.031 19.415 L 72.031 19.415 L 72.031 19.415 Q 71.748 18.589 71.748 17.524 L 71.748 17.524 Z  M 87.699 17.524 L 87.699 17.524 L 87.699 17.524 Q 87.699 16.46 87.982 15.634 L 87.982 15.634 L 87.982 15.634 Q 88.265 14.808 88.763 14.242 L 88.763 14.242 L 88.763 14.242 Q 89.262 13.676 89.929 13.381 L 89.929 13.381 L 89.929 13.381 Q 90.597 13.087 91.345 13.087 L 91.345 13.087 L 91.345 13.087 Q 92.092 13.087 92.76 13.381 L 92.76 13.381 L 92.76 13.381 Q 93.427 13.676 93.926 14.242 L 93.926 14.242 L 93.926 14.242 Q 94.424 14.808 94.707 15.634 L 94.707 15.634 L 94.707 15.634 Q 94.99 16.46 94.99 17.524 L 94.99 17.524 L 94.99 17.524 Q 94.99 18.589 94.707 19.415 L 94.707 19.415 L 94.707 19.415 Q 94.424 20.241 93.926 20.796 L 93.926 20.796 L 93.926 20.796 Q 93.427 21.351 92.76 21.645 L 92.76 21.645 L 92.76 21.645 Q 92.092 21.939 91.345 21.939 L 91.345 21.939 L 91.345 21.939 Q 90.597 21.939 89.929 21.645 L 89.929 21.645 L 89.929 21.645 Q 89.262 21.351 88.763 20.796 L 88.763 20.796 L 88.763 20.796 Q 88.265 20.241 87.982 19.415 L 87.982 19.415 L 87.982 19.415 Q 87.699 18.589 87.699 17.524 L 87.699 17.524 Z  M 107.251 11.66 L 104.919 11.66 L 104.919 8.151 L 102.994 8.151 L 102.994 11.66 L 101.002 11.66 L 101.002 13.359 L 102.994 13.359 L 102.994 20.807 L 102.994 20.807 Q 102.994 21.622 103.153 22.121 L 103.153 22.121 L 103.153 22.121 Q 103.311 22.619 103.64 22.89 L 103.64 22.89 L 103.64 22.89 Q 103.968 23.162 104.5 23.264 L 104.5 23.264 L 104.5 23.264 Q 105.032 23.366 105.779 23.366 L 105.779 23.366 L 107.251 23.366 L 107.251 21.668 L 106.368 21.668 L 106.368 21.668 Q 105.915 21.668 105.632 21.634 L 105.632 21.634 L 105.632 21.634 Q 105.349 21.6 105.19 21.487 L 105.19 21.487 L 105.19 21.487 Q 105.032 21.373 104.975 21.17 L 104.975 21.17 L 104.975 21.17 Q 104.919 20.966 104.919 20.626 L 104.919 20.626 L 104.919 13.359 L 107.251 13.359 L 107.251 11.66 L 107.251 11.66 Z  M 51.898 21.826 L 51.898 23.321 L 51.898 23.321 Q 51.4 23.615 50.517 23.615 L 50.517 23.615 L 50.517 23.615 Q 49.77 23.615 49.328 23.196 L 49.328 23.196 L 49.328 23.196 Q 48.887 22.777 48.887 21.826 L 48.887 21.826 L 48.887 21.826 Q 48.094 22.777 47.041 23.196 L 47.041 23.196 L 47.041 23.196 Q 45.989 23.615 44.766 23.615 L 44.766 23.615 L 44.766 23.615 Q 43.974 23.615 43.26 23.434 L 43.26 23.434 L 43.26 23.434 Q 42.547 23.253 42.027 22.868 L 42.027 22.868 L 42.027 22.868 Q 41.506 22.483 41.2 21.86 L 41.2 21.86 L 41.2 21.86 Q 40.894 21.238 40.894 20.355 L 40.894 20.355 L 40.894 20.355 Q 40.894 19.358 41.234 18.724 L 41.234 18.724 L 41.234 18.724 Q 41.574 18.09 42.128 17.694 L 42.128 17.694 L 42.128 17.694 Q 42.683 17.298 43.396 17.094 L 43.396 17.094 L 43.396 17.094 Q 44.109 16.891 44.857 16.755 L 44.857 16.755 L 44.857 16.755 Q 45.649 16.596 46.362 16.517 L 46.362 16.517 L 46.362 16.517 Q 47.075 16.438 47.619 16.291 L 47.619 16.291 L 47.619 16.291 Q 48.162 16.143 48.479 15.86 L 48.479 15.86 L 48.479 15.86 Q 48.796 15.577 48.796 15.034 L 48.796 15.034 L 48.796 15.034 Q 48.796 14.4 48.558 14.015 L 48.558 14.015 L 48.558 14.015 Q 48.321 13.63 47.947 13.426 L 47.947 13.426 L 47.947 13.426 Q 47.574 13.223 47.109 13.155 L 47.109 13.155 L 47.109 13.155 Q 46.645 13.087 46.192 13.087 L 46.192 13.087 L 46.192 13.087 Q 44.97 13.087 44.155 13.551 L 44.155 13.551 L 44.155 13.551 Q 43.34 14.015 43.272 15.306 L 43.272 15.306 L 41.347 15.306 L 41.347 15.306 Q 41.393 14.219 41.8 13.472 L 41.8 13.472 L 41.8 13.472 Q 42.208 12.725 42.887 12.26 L 42.887 12.26 L 42.887 12.26 Q 43.566 11.796 44.438 11.593 L 44.438 11.593 L 44.438 11.593 Q 45.309 11.389 46.306 11.389 L 46.306 11.389 L 46.306 11.389 Q 47.098 11.389 47.879 11.502 L 47.879 11.502 L 47.879 11.502 Q 48.66 11.615 49.294 11.965 L 49.294 11.965 L 49.294 11.965 Q 49.928 12.315 50.313 12.948 L 50.313 12.948 L 50.313 12.948 Q 50.698 13.58 50.698 14.597 L 50.698 14.597 L 50.698 20.606 L 50.698 20.606 Q 50.698 21.284 50.777 21.6 L 50.777 21.6 L 50.777 21.6 Q 50.856 21.917 51.309 21.917 L 51.309 21.917 L 51.309 21.917 Q 51.558 21.917 51.898 21.826 L 51.898 21.826 L 51.898 21.826 Z  M 69.71 17.524 L 69.71 17.524 L 69.71 17.524 Q 69.71 18.815 70.072 19.924 L 70.072 19.924 L 70.072 19.924 Q 70.435 21.034 71.159 21.86 L 71.159 21.86 L 71.159 21.86 Q 71.884 22.687 72.948 23.151 L 72.948 23.151 L 72.948 23.151 Q 74.012 23.615 75.393 23.615 L 75.393 23.615 L 75.393 23.615 Q 76.797 23.615 77.85 23.151 L 77.85 23.151 L 77.85 23.151 Q 78.902 22.687 79.627 21.86 L 79.627 21.86 L 79.627 21.86 Q 80.351 21.034 80.714 19.924 L 80.714 19.924 L 80.714 19.924 Q 81.076 18.815 81.076 17.524 L 81.076 17.524 L 81.076 17.524 Q 81.076 16.234 80.714 15.113 L 80.714 15.113 L 80.714 15.113 Q 80.351 13.992 79.627 13.166 L 79.627 13.166 L 79.627 13.166 Q 78.902 12.34 77.85 11.864 L 77.85 11.864 L 77.85 11.864 Q 76.797 11.389 75.393 11.389 L 75.393 11.389 L 75.393 11.389 Q 74.012 11.389 72.948 11.864 L 72.948 11.864 L 72.948 11.864 Q 71.884 12.34 71.159 13.166 L 71.159 13.166 L 71.159 13.166 Q 70.435 13.992 70.072 15.113 L 70.072 15.113 L 70.072 15.113 Q 69.71 16.234 69.71 17.524 L 69.71 17.524 Z  M 85.662 17.524 L 85.662 17.524 L 85.662 17.524 Q 85.662 18.815 86.024 19.924 L 86.024 19.924 L 86.024 19.924 Q 86.386 21.034 87.111 21.86 L 87.111 21.86 L 87.111 21.86 Q 87.835 22.687 88.899 23.151 L 88.899 23.151 L 88.899 23.151 Q 89.963 23.615 91.345 23.615 L 91.345 23.615 L 91.345 23.615 Q 92.748 23.615 93.801 23.151 L 93.801 23.151 L 93.801 23.151 Q 94.854 22.687 95.578 21.86 L 95.578 21.86 L 95.578 21.86 Q 96.303 21.034 96.665 19.924 L 96.665 19.924 L 96.665 19.924 Q 97.027 18.815 97.027 17.524 L 97.027 17.524 L 97.027 17.524 Q 97.027 16.234 96.665 15.113 L 96.665 15.113 L 96.665 15.113 Q 96.303 13.992 95.578 13.166 L 95.578 13.166 L 95.578 13.166 Q 94.854 12.34 93.801 11.864 L 93.801 11.864 L 93.801 11.864 Q 92.748 11.389 91.345 11.389 L 91.345 11.389 L 91.345 11.389 Q 89.963 11.389 88.899 11.864 L 88.899 11.864 L 88.899 11.864 Q 87.835 12.34 87.111 13.166 L 87.111 13.166 L 87.111 13.166 Q 86.386 13.992 86.024 15.113 L 86.024 15.113 L 86.024 15.113 Q 85.662 16.234 85.662 17.524 L 85.662 17.524 Z  M 18.865 6.065 L 15.029 6.065 L 13.899 4.965 L 8.324 4.965 L 7.209 6.065 L 3.374 6.065 C 3.032 6.065 2.749 6.348 2.749 6.69 L 2.749 7.686 C 2.749 8.028 3.032 8.31 3.374 8.31 L 18.85 8.31 C 19.192 8.31 19.474 8.028 19.474 7.686 L 19.474 6.69 C 19.489 6.333 19.206 6.065 18.865 6.065 L 18.865 6.065 Z  M 4.622 22.85 C 4.622 24.054 5.604 25.035 6.808 25.035 L 15.534 25.035 C 16.739 25.035 17.72 24.054 17.72 22.85 L 18.374 9.276 L 3.879 9.276 L 4.622 22.85 L 4.622 22.85 Z " fill-rule="evenodd" fill="white"/></g></svg>
